m/partners/pnr08.svg

<svg width="90" height="32" viewBox="0 0 90 32" fill="none" xmlns="http://www.w3.org/2000/svg">
<path d="M9.7124 27.131L9.7124 5.13208H8.88112L8.88112 27.131H9.7124Z" fill="#2B354E"/>
<path d="M82.3853 27.2007V5.20178H81.554V27.2007H82.3853Z" fill="#2B354E"/>
<path d="M33.6222 11.2974H31.7368V16.2717H33.6222C34.462 16.3005 35.2854 16.0761 35.9361 15.6411C36.2709 15.4132 36.532 15.1214 36.6964 14.7916C36.8608 14.4617 36.9234 14.1038 36.8788 13.7495C36.9331 13.4048 36.8744 13.0545 36.7088 12.7345C36.5431 12.4144 36.2765 12.1361 35.9361 11.9279C35.2854 11.493 34.462 11.2686 33.6222 11.2974Z" fill="#2B354E"/>
<path d="M17.7681 18.093H23.0814L20.4247 13.1188L17.7681 18.093Z" fill="#2B354E"/>
<path d="M9.1123 5.83276V26.7107H82.3849V5.83276H9.1123ZM26.0807 23.1376L24.0239 19.7747H16.7395L14.8541 23.1376H12.4546L20.4246 8.98547L28.4803 23.1376H26.0807ZM38.0785 15.9214C37.6014 16.4909 36.9518 16.9495 36.1932 17.2526C35.403 17.5962 34.5168 17.7652 33.6222 17.743H31.7368V23.1376H29.5087V9.75613H33.6222C34.5168 9.7339 35.403 9.90294 36.1932 10.2466C36.9723 10.557 37.6265 11.0432 38.0785 11.6478C38.5448 12.2815 38.7825 13.0101 38.7641 13.7496C38.7721 14.5101 38.5357 15.259 38.0785 15.9214ZM49.8193 14.0999L45.363 23.4179L38.507 9.68607H41.078L45.4487 18.8639L49.7336 9.68607L54.7041 18.7939L59.1605 9.68607H61.303L54.5327 23.4179L49.8193 14.0999ZM77.0716 19.0041C76.73 19.8437 76.2076 20.6267 75.529 21.316C74.8017 21.9606 73.9286 22.484 72.958 22.8574C71.9065 23.2392 70.7663 23.4304 69.6158 23.4179C68.4728 23.4383 67.3364 23.2715 66.2735 22.9274C65.2397 22.6054 64.3039 22.1034 63.5311 21.4562C62.7586 20.8117 62.1472 20.0501 61.7315 19.2142C61.3103 18.3209 61.1066 17.369 61.1316 16.4118C61.1066 15.4547 61.3103 14.5028 61.7315 13.6094C62.1472 12.7735 62.7586 12.012 63.5311 11.3675C64.3039 10.7203 65.2397 10.2183 66.2735 9.89625C67.3364 9.55217 68.4728 9.38542 69.6158 9.40583C70.5771 9.37404 71.5371 9.49295 72.4438 9.75613C73.2757 9.94389 74.0594 10.2524 74.7577 10.6669C75.4442 11.1348 76.0496 11.6769 76.5574 12.2783L75.1005 13.3993C74.5824 12.6504 73.808 12.0416 72.8723 11.6478C71.8725 11.2093 70.7499 10.9919 69.6158 11.0172C68.4773 11.0343 67.3605 11.2746 66.3592 11.7178C65.3859 12.2097 64.5883 12.9026 64.0467 13.7266C63.5051 14.5507 63.2386 15.4768 63.274 16.4118C63.2428 17.3923 63.5391 18.3612 64.131 19.2142C64.6659 19.9888 65.4326 20.6397 66.3592 21.1059C67.3668 21.5274 68.484 21.7437 69.6158 21.7364C70.3729 21.751 71.1272 21.6562 71.8439 21.4562C72.4613 21.2441 73.0385 20.961 73.5579 20.6154C74.0236 20.2565 74.4016 19.8286 74.672 19.3544C75.0242 18.9087 75.2578 18.4074 75.3576 17.8831H69.8729V16.3418H77.5858C77.5891 17.2459 77.4155 18.1447 77.0716 19.0041Z" fill="#2B354E"/>
<path d="M83.4134 5.76249V5.06189H7.22705V5.76249H8.76963V26.7805H7.22705V27.4111H83.4134V26.7805H82.6421V5.76249H83.4134ZM81.8708 26.7805H9.62662V5.76249H81.8708V26.7805Z" fill="#2B354E"/>
</svg>

<svg xmlns="http://www.w3.org/2000/svg" fill="none" viewBox="0 0 90 32"><path fill="#2B354E" d="M9.712 27.131V5.132h-.83v21.999h.83ZM82.385 27.2V5.203h-.831V27.2h.831ZM33.622 11.297h-1.885v4.975h1.885c.84.029 1.663-.196 2.314-.63.335-.229.596-.52.76-.85.165-.33.227-.688.183-1.043a1.64 1.64 0 0 0-.17-1.014 2.08 2.08 0 0 0-.773-.807c-.65-.435-1.474-.66-2.314-.63ZM17.768 18.093h5.313l-2.656-4.974-2.657 4.974Z"/><path fill="#2B354E" d="M9.112 5.833V26.71h73.273V5.833H9.112Zm16.969 17.305-2.057-3.363h-7.285l-1.885 3.363h-2.4l7.97-14.153 8.056 14.153h-2.4Zm11.997-7.217c-.477.57-1.126 1.029-1.885 1.332a6.097 6.097 0 0 1-2.57.49h-1.886v5.395h-2.228V9.756h4.113a6.096 6.096 0 0 1 2.571.49c.78.311 1.434.797 1.886 1.402.466.633.703 1.362.685 2.102.008.76-.228 1.509-.686 2.171ZM49.82 14.1l-4.456 9.318-6.856-13.732h2.571l4.37 9.178 4.286-9.178 4.97 9.108 4.456-9.108h2.143l-6.77 13.732-4.714-9.318Zm27.253 4.904a7.145 7.145 0 0 1-1.543 2.312 8.438 8.438 0 0 1-2.571 1.541 9.522 9.522 0 0 1-3.342.56c-1.143.021-2.28-.146-3.343-.49a7.95 7.95 0 0 1-2.742-1.47 6.993 6.993 0 0 1-1.8-2.243 6.172 6.172 0 0 1-.6-2.802 6.173 6.173 0 0 1 .6-2.803 6.993 6.993 0 0 1 1.8-2.242 7.95 7.95 0 0 1 2.742-1.47c1.063-.345 2.2-.512 3.343-.491a9.095 9.095 0 0 1 2.828.35 7.978 7.978 0 0 1 2.314.91 8.935 8.935 0 0 1 1.8 1.612L75.1 13.4c-.518-.749-1.292-1.357-2.228-1.751a7.716 7.716 0 0 0-3.256-.63 8.387 8.387 0 0 0-3.257.7c-.973.492-1.77 1.185-2.312 2.009-.542.824-.808 1.75-.773 2.685-.031.98.265 1.95.857 2.802.535.775 1.302 1.426 2.228 1.892a8.332 8.332 0 0 0 3.257.63 7.753 7.753 0 0 0 2.228-.28 7.482 7.482 0 0 0 1.714-.84 4.278 4.278 0 0 0 1.114-1.262 3.4 3.4 0 0 0 .686-1.47h-5.485v-1.542h7.713a7.08 7.08 0 0 1-.514 2.662Z"/><path fill="#2B354E" d="M83.413 5.762v-.7H7.227v.7H8.77V26.78H7.227v.631h76.186v-.63h-.77V5.762h.77ZM81.871 26.78H9.627V5.762H81.87V26.78Z"/></svg>
